icons/svg/shields/h_topo_bus_stop_small_shield.svg

<?xml version="1.0" encoding="UTF-8" standalone="no"?>
<!-- Created with Inkscape (http://www.inkscape.org/) -->

<svg
   xmlns:dc="http://purl.org/dc/elements/1.1/"
   xmlns:cc="http://creativecommons.org/ns#"
   xmlns:rdf="http://www.w3.org/1999/02/22-rdf-syntax-ns#"
   xmlns:svg="http://www.w3.org/2000/svg"
   xmlns="http://www.w3.org/2000/svg"
   xmlns:sodipodi="http://sodipodi.sourceforge.net/DTD/sodipodi-0.dtd"
   xmlns:inkscape="http://www.inkscape.org/namespaces/inkscape"
   version="1.0"
   width="16"
   height="16"
   id="svg2"
   sodipodi:version="0.32"
   inkscape:version="0.91 r"
   sodipodi:docname="h_topo_bus_stop_small_shield.svg"
   inkscape:output_extension="org.inkscape.output.svg.inkscape">
  <metadata
     id="metadata10">
    <rdf:RDF>
      <cc:Work
         rdf:about="">
        <dc:format>image/svg+xml</dc:format>
        <dc:type
           rdf:resource="http://purl.org/dc/dcmitype/StillImage" />
        <cc:license
           rdf:resource="http://web.resource.org/cc/PublicDomain" />
        <dc:language>en</dc:language>
        <dc:title />
      </cc:Work>
    </rdf:RDF>
  </metadata>
  <sodipodi:namedview
     inkscape:window-height="1006"
     inkscape:window-width="1920"
     inkscape:pageshadow="2"
     inkscape:pageopacity="0.0"
     guidetolerance="10.0"
     gridtolerance="10.0"
     objecttolerance="10.0"
     borderopacity="1.0"
     bordercolor="#666666"
     pagecolor="#ffffff"
     id="base"
     showgrid="false"
     inkscape:zoom="23.997436"
     inkscape:cx="4.336367"
     inkscape:cy="6.8604081"
     inkscape:window-x="1920"
     inkscape:window-y="0"
     inkscape:current-layer="svg2"
     inkscape:window-maximized="1"
     showguides="true"
     inkscape:guide-bbox="true" />
  <defs
     id="defs4">
    <inkscape:perspective
       sodipodi:type="inkscape:persp3d"
       inkscape:vp_x="0 : 290 : 1"
       inkscape:vp_y="0 : 1000 : 0"
       inkscape:vp_z="580 : 290 : 1"
       inkscape:persp3d-origin="290 : 193.33333 : 1"
       id="perspective12" />
    <style
       type="text/css"
       id="style6">
   
    .fil0 {fill:#EF7900}
   
  </style>
    <inkscape:perspective
       id="perspective6807"
       inkscape:persp3d-origin="29.116032 : 19.410688 : 1"
       inkscape:vp_z="58.232063 : 29.116032 : 1"
       inkscape:vp_y="0 : 1000 : 0"
       inkscape:vp_x="0 : 29.116032 : 1"
       sodipodi:type="inkscape:persp3d" />
    <inkscape:perspective
       id="perspective6954"
       inkscape:persp3d-origin="290 : 193.33333 : 1"
       inkscape:vp_z="580 : 290 : 1"
       inkscape:vp_y="0 : 1000 : 0"
       inkscape:vp_x="0 : 290 : 1"
       sodipodi:type="inkscape:persp3d" />
    <inkscape:perspective
       id="perspective2541"
       inkscape:persp3d-origin="240 : 160 : 1"
       inkscape:vp_z="480 : 240 : 1"
       inkscape:vp_y="0 : 1000 : 0"
       inkscape:vp_x="0 : 240 : 1"
       sodipodi:type="inkscape:persp3d" />
    <inkscape:perspective
       id="perspective2750"
       inkscape:persp3d-origin="215 : 143.33333 : 1"
       inkscape:vp_z="430 : 215 : 1"
       inkscape:vp_y="0 : 1000 : 0"
       inkscape:vp_x="0 : 215 : 1"
       sodipodi:type="inkscape:persp3d" />
    <inkscape:perspective
       id="perspective3730"
       inkscape:persp3d-origin="88.929146 : 101.19778 : 1"
       inkscape:vp_z="177.85829 : 151.79668 : 1"
       inkscape:vp_y="0 : 1000 : 0"
       inkscape:vp_x="0 : 151.79668 : 1"
       sodipodi:type="inkscape:persp3d" />
    <marker
       inkscape:stockid="TriangleInM"
       orient="auto"
       refY="0"
       refX="0"
       id="TriangleInM-3"
       style="overflow:visible"
       inkscape:isstock="true">
      <path
         inkscape:connector-curvature="0"
         id="path4303-6"
         d="m 5.77,0 -8.65,5 0,-10 8.65,5 z"
         style="fill:#ffffff;fill-opacity:1;fill-rule:evenodd;stroke:#ffffff;stroke-width:1pt;stroke-opacity:1"
         transform="scale(-0.4,-0.4)" />
    </marker>
    <marker
       inkscape:stockid="TriangleOutM"
       orient="auto"
       refY="0"
       refX="0"
       id="TriangleOutM-7"
       style="overflow:visible"
       inkscape:isstock="true">
      <path
         inkscape:connector-curvature="0"
         id="path4312-5"
         d="m 5.77,0 -8.65,5 0,-10 8.65,5 z"
         style="fill:#ffffff;fill-opacity:1;fill-rule:evenodd;stroke:#ffffff;stroke-width:1pt;stroke-opacity:1"
         transform="scale(0.4,0.4)" />
    </marker>
    <marker
       inkscape:stockid="TriangleInM"
       orient="auto"
       refY="0"
       refX="0"
       id="TriangleInM"
       style="overflow:visible"
       inkscape:isstock="true">
      <path
         inkscape:connector-curvature="0"
         id="path4303"
         d="m 5.77,0 -8.65,5 0,-10 8.65,5 z"
         style="fill:#ffffff;fill-opacity:1;fill-rule:evenodd;stroke:#ffffff;stroke-width:1pt;stroke-opacity:1"
         transform="scale(-0.4,-0.4)" />
    </marker>
    <marker
       inkscape:stockid="TriangleOutM"
       orient="auto"
       refY="0"
       refX="0"
       id="TriangleOutM"
       style="overflow:visible"
       inkscape:isstock="true">
      <path
         inkscape:connector-curvature="0"
         id="path4312"
         d="m 5.77,0 -8.65,5 0,-10 8.65,5 z"
         style="fill:#ffffff;fill-opacity:1;fill-rule:evenodd;stroke:#ffffff;stroke-width:1pt;stroke-opacity:1"
         transform="scale(0.4,0.4)" />
    </marker>
    <marker
       inkscape:stockid="TriangleInM"
       orient="auto"
       refY="0"
       refX="0"
       id="TriangleInM-3-3"
       style="overflow:visible"
       inkscape:isstock="true">
      <path
         inkscape:connector-curvature="0"
         id="path4303-6-6"
         d="m 5.77,0 -8.65,5 0,-10 8.65,5 z"
         style="fill:#ffffff;fill-opacity:1;fill-rule:evenodd;stroke:#ffffff;stroke-width:1pt;stroke-opacity:1"
         transform="scale(-0.4,-0.4)" />
    </marker>
    <marker
       inkscape:stockid="TriangleOutM"
       orient="auto"
       refY="0"
       refX="0"
       id="TriangleOutM-7-7"
       style="overflow:visible"
       inkscape:isstock="true">
      <path
         inkscape:connector-curvature="0"
         id="path4312-5-5"
         d="m 5.77,0 -8.65,5 0,-10 8.65,5 z"
         style="fill:#ffffff;fill-opacity:1;fill-rule:evenodd;stroke:#ffffff;stroke-width:1pt;stroke-opacity:1"
         transform="scale(0.4,0.4)" />
    </marker>
    <marker
       inkscape:stockid="TriangleInM"
       orient="auto"
       refY="0"
       refX="0"
       id="TriangleInM-3-5"
       style="overflow:visible"
       inkscape:isstock="true">
      <path
         inkscape:connector-curvature="0"
         id="path4303-6-62"
         d="m 5.77,0 -8.65,5 0,-10 8.65,5 z"
         style="fill:#ffffff;fill-opacity:1;fill-rule:evenodd;stroke:#ffffff;stroke-width:1pt;stroke-opacity:1"
         transform="scale(-0.4,-0.4)" />
    </marker>
    <marker
       inkscape:stockid="TriangleOutM"
       orient="auto"
       refY="0"
       refX="0"
       id="TriangleOutM-7-9"
       style="overflow:visible"
       inkscape:isstock="true">
      <path
         inkscape:connector-curvature="0"
         id="path4312-5-1"
         d="m 5.77,0 -8.65,5 0,-10 8.65,5 z"
         style="fill:#ffffff;fill-opacity:1;fill-rule:evenodd;stroke:#ffffff;stroke-width:1pt;stroke-opacity:1"
         transform="scale(0.4,0.4)" />
    </marker>
    <marker
       inkscape:stockid="TriangleInM"
       orient="auto"
       refY="0"
       refX="0"
       id="TriangleInM-3-0"
       style="overflow:visible"
       inkscape:isstock="true">
      <path
         inkscape:connector-curvature="0"
         id="path4303-6-9"
         d="m 5.77,0 -8.65,5 0,-10 8.65,5 z"
         style="fill:#ffffff;fill-opacity:1;fill-rule:evenodd;stroke:#ffffff;stroke-width:1pt;stroke-opacity:1"
         transform="scale(-0.4,-0.4)" />
    </marker>
    <marker
       inkscape:stockid="TriangleOutM"
       orient="auto"
       refY="0"
       refX="0"
       id="TriangleOutM-7-3"
       style="overflow:visible"
       inkscape:isstock="true">
      <path
         inkscape:connector-curvature="0"
         id="path4312-5-6"
         d="m 5.77,0 -8.65,5 0,-10 8.65,5 z"
         style="fill:#ffffff;fill-opacity:1;fill-rule:evenodd;stroke:#ffffff;stroke-width:1pt;stroke-opacity:1"
         transform="scale(0.4,0.4)" />
    </marker>
    <marker
       inkscape:stockid="TriangleInM"
       orient="auto"
       refY="0"
       refX="0"
       id="TriangleInM-0"
       style="overflow:visible"
       inkscape:isstock="true">
      <path
         inkscape:connector-curvature="0"
         id="path4303-62"
         d="m 5.77,0 -8.65,5 0,-10 8.65,5 z"
         style="fill:#ffffff;fill-opacity:1;fill-rule:evenodd;stroke:#ffffff;stroke-width:1pt;stroke-opacity:1"
         transform="scale(-0.4,-0.4)" />
    </marker>
    <marker
       inkscape:stockid="TriangleOutM"
       orient="auto"
       refY="0"
       refX="0"
       id="TriangleOutM-6"
       style="overflow:visible"
       inkscape:isstock="true">
      <path
         inkscape:connector-curvature="0"
         id="path4312-1"
         d="m 5.77,0 -8.65,5 0,-10 8.65,5 z"
         style="fill:#ffffff;fill-opacity:1;fill-rule:evenodd;stroke:#ffffff;stroke-width:1pt;stroke-opacity:1"
         transform="scale(0.4,0.4)" />
    </marker>
    <marker
       inkscape:stockid="TriangleInM"
       orient="auto"
       refY="0"
       refX="0"
       id="TriangleInM-3-0-8"
       style="overflow:visible"
       inkscape:isstock="true">
      <path
         inkscape:connector-curvature="0"
         id="path4303-6-9-7"
         d="m 5.77,0 -8.65,5 0,-10 8.65,5 z"
         style="fill:#ffffff;fill-opacity:1;fill-rule:evenodd;stroke:#ffffff;stroke-width:1pt;stroke-opacity:1"
         transform="scale(-0.4,-0.4)" />
    </marker>
    <marker
       inkscape:stockid="TriangleOutM"
       orient="auto"
       refY="0"
       refX="0"
       id="TriangleOutM-7-3-9"
       style="overflow:visible"
       inkscape:isstock="true">
      <path
         inkscape:connector-curvature="0"
         id="path4312-5-6-2"
         d="m 5.77,0 -8.65,5 0,-10 8.65,5 z"
         style="fill:#ffffff;fill-opacity:1;fill-rule:evenodd;stroke:#ffffff;stroke-width:1pt;stroke-opacity:1"
         transform="scale(0.4,0.4)" />
    </marker>
  </defs>
  <g
     id="g1327-1"
     transform="matrix(0.0275932,0,0,0.0275932,11.92079,-3.6224462)" />
  <path
     sodipodi:type="inkscape:offset"
     inkscape:radius="1.2113329"
     inkscape:original="M 8.0019531 3.6953125 C 7.2130331 3.7013125 6.1434056 3.923485 5.6972656 4.109375 C 5.2447356 4.297935 4.9438794 4.4876044 4.8496094 4.9589844 L 4.5097656 7.5722656 L 4.5097656 11.171875 L 5.09375 11.171875 L 5.09375 11.736328 C 5.09375 12.424838 6.1015625 12.424838 6.1015625 11.736328 L 6.1015625 11.171875 L 7.9628906 11.171875 L 7.96875 11.171875 L 9.9023438 11.171875 L 9.9023438 11.736328 C 9.9023438 12.424838 10.910156 12.424838 10.910156 11.736328 L 10.910156 11.171875 L 11.494141 11.171875 L 11.494141 7.5722656 L 11.154297 4.9589844 C 11.059997 4.4876044 10.759171 4.297935 10.306641 4.109375 C 9.8604606 3.923465 8.7909031 3.7015225 8.0019531 3.6953125 z M 5.8027344 5.2070312 L 7.9648438 5.2070312 L 10.201172 5.2070312 C 10.499952 5.2070312 10.578964 5.3595637 10.615234 5.5898438 L 10.878906 7.484375 C 10.903506 7.666045 10.850579 7.8476563 10.599609 7.8476562 L 7.96875 7.8476562 L 5.4042969 7.8476562 C 5.1532969 7.8476562 5.10037 7.666045 5.125 7.484375 L 5.390625 5.5898438 C 5.426925 5.3595638 5.5039644 5.2070313 5.8027344 5.2070312 z M 5.5996094 9.0761719 C 5.8665194 9.0761719 6.0820312 9.2936369 6.0820312 9.5605469 C 6.0820312 9.8274569 5.8665194 10.042969 5.5996094 10.042969 C 5.3326994 10.042969 5.1152344 9.8274569 5.1152344 9.5605469 C 5.1152344 9.2936369 5.3326994 9.0761719 5.5996094 9.0761719 z M 10.40625 9.0761719 C 10.67315 9.0761719 10.888672 9.2936369 10.888672 9.5605469 C 10.888672 9.8274569 10.67315 10.042969 10.40625 10.042969 C 10.13934 10.042969 9.921875 9.8274569 9.921875 9.5605469 C 9.921875 9.2936369 10.13934 9.0761719 10.40625 9.0761719 z "
     style="color:#000000;clip-rule:nonzero;display:inline;overflow:visible;visibility:visible;opacity:1;isolation:auto;mix-blend-mode:normal;color-interpolation:sRGB;color-interpolation-filters:linearRGB;solid-color:#000000;solid-opacity:1;fill:#ffffff;fill-opacity:1;fill-rule:nonzero;stroke:none;stroke-width:1;stroke-linecap:butt;stroke-linejoin:miter;stroke-miterlimit:4;stroke-dasharray:none;stroke-dashoffset:0;stroke-opacity:1;color-rendering:auto;image-rendering:auto;shape-rendering:auto;text-rendering:auto;enable-background:accumulate"
     id="path4354"
     d="M 7.9921875,2.484375 C 6.984193,2.4920411 5.9948066,2.6737163 5.2304688,2.9921875 4.959073,3.1052726 4.6437331,3.2419385 4.3261719,3.5292969 4.0086106,3.8166553 3.751712,4.2726614 3.6621094,4.7207031 a 1.2114541,1.2114541 0 0 0 -0.013672,0.082031 L 3.3085938,7.4160156 a 1.2114541,1.2114541 0 0 0 -0.00977,0.15625 l 0,3.5996094 a 1.2114541,1.2114541 0 0 0 0.8359375,1.150391 c 0.09564,0.246165 0.1148189,0.527873 0.3007813,0.697265 0.3421554,0.311669 0.7602829,0.445313 1.1621093,0.445313 0.4018265,0 0.819954,-0.133644 1.1621094,-0.445313 0.1696957,-0.154575 0.1780217,-0.415552 0.2734375,-0.636719 l 0.9296875,0 0.00586,0 1.0019531,0 c 0.095416,0.221167 0.1037419,0.482144 0.2734375,0.636719 0.3421553,0.311669 0.7602834,0.445313 1.1621094,0.445313 0.401826,0 0.819954,-0.133644 1.162109,-0.445313 0.185963,-0.169392 0.205142,-0.4511 0.300782,-0.697265 a 1.2114541,1.2114541 0 0 0 0.835937,-1.150391 l 0,-3.5996094 a 1.2114541,1.2114541 0 0 0 -0.0098,-0.15625 L 12.355469,4.8027344 a 1.2114541,1.2114541 0 0 0 -0.01367,-0.082031 C 12.252174,4.2727034 11.995285,3.8166532 11.677734,3.5292969 11.360184,3.2419406 11.044842,3.1052763 10.773438,2.9921875 10.008794,2.6735834 9.0192076,2.4923052 8.0117188,2.484375 a 1.2114541,1.2114541 0 0 0 -0.019531,0 z m -1.4941406,3.9335938 1.4667969,0 1.5429687,0 0.03125,0.21875 -1.5703125,0 -1.5019531,0 0.03125,-0.21875 z m -0.171875,1.2246093 c -7.31e-5,5.321e-4 7.08e-5,0.00338 0,0.00391 l -0.00195,0.00586 0.00195,-0.00977 z m 3.3515625,0 0.00195,0.00781 -0.00195,-0.00391 c -7.08e-5,-5.224e-4 7.3e-5,-0.00337 0,-0.00391 z m -4.078125,1.1894531 c 0.3851372,0 0.7265625,0.3374698 0.7265625,0.7285157 0,0.3910459 -0.3355166,0.7265621 -0.7265625,0.7265621 -0.3910459,0 -0.7285156,-0.3414258 -0.7285156,-0.7265621 0,-0.3851364 0.3433783,-0.7285156 0.7285156,-0.7285157 z m 4.8066406,0 c 0.385137,0 0.726563,0.3374698 0.726562,0.7285157 0,0.3910459 -0.335516,0.7265621 -0.726562,0.7265621 -0.391081,0 -0.7285156,-0.3413949 -0.7285156,-0.7265621 0,-0.3851672 0.3433436,-0.7285156 0.7285156,-0.7285157 z" />
</svg>

<svg width="16" height="16" viewBox="0 0 16 16" fill="none" xmlns="http://www.w3.org/2000/svg">
<path d="M7.99219 2.48435C6.9842 2.49202 5.99481 2.67369 5.23048 2.99217C4.95908 3.10525 4.64374 3.24192 4.32618 3.52928C4.00862 3.81663 3.75172 4.27264 3.66212 4.72068C3.65662 4.74786 3.65206 4.77522 3.64844 4.80271L3.3086 7.41599C3.30198 7.46781 3.29872 7.52 3.29883 7.57224V11.1719C3.29912 11.4272 3.38012 11.676 3.53025 11.8826C3.68038 12.0892 3.89196 12.2431 4.13477 12.3222C4.23041 12.5684 4.24959 12.8501 4.43555 13.0195C4.77771 13.3312 5.19583 13.4648 5.59766 13.4648C5.99949 13.4648 6.41761 13.3312 6.75977 13.0195C6.92946 12.8649 6.93779 12.604 7.03321 12.3828H7.96289H7.96875H8.97071C9.06612 12.604 9.07445 12.8649 9.24414 13.0195C9.5863 13.3312 10.0044 13.4648 10.4063 13.4648C10.8081 13.4648 11.2262 13.3312 11.5684 13.0195C11.7543 12.8501 11.7735 12.5684 11.8691 12.3222C12.112 12.2431 12.3235 12.0892 12.4737 11.8826C12.6238 11.676 12.7048 11.4272 12.7051 11.1719V7.57224C12.7052 7.52 12.7019 7.46781 12.6953 7.41599L12.3555 4.80271C12.3519 4.77522 12.3473 4.74786 12.3418 4.72068C12.2522 4.27268 11.9953 3.81663 11.6777 3.52928C11.3602 3.24192 11.0448 3.10525 10.7734 2.99217C10.0088 2.67356 9.01921 2.49228 8.01173 2.48435C8.00522 2.4843 7.99871 2.4843 7.9922 2.48435H7.99219ZM6.49805 6.41795H7.96485H9.50782L9.53907 6.6367H7.96876H6.4668L6.49805 6.41795ZM6.32618 7.64256C6.32611 7.64309 6.32625 7.64594 6.32618 7.64647L6.32423 7.65233L6.32618 7.64256V7.64256ZM9.67774 7.64256L9.67969 7.65037L9.67774 7.64646C9.67767 7.64593 9.67781 7.64309 9.67774 7.64255V7.64256ZM5.59962 8.83201C5.98475 8.83201 6.32618 9.16948 6.32618 9.56053C6.32618 9.95157 5.99066 10.2871 5.59962 10.2871C5.20857 10.2871 4.8711 9.94566 4.8711 9.56053C4.8711 9.17539 5.21448 8.83201 5.59962 8.83201V8.83201ZM10.4063 8.83201C10.7914 8.83201 11.1328 9.16948 11.1328 9.56053C11.1328 9.95157 10.7973 10.2871 10.4063 10.2871C10.0152 10.2871 9.67774 9.94569 9.67774 9.56053C9.67774 9.17536 10.0211 8.83201 10.4063 8.83201V8.83201Z" fill="white"/>
</svg>
